app/assets/images/payment_icons/airtel_money.svg

<svg viewBox="0 0 38 24" xmlns="http://www.w3.org/2000/svg" height="24" width="38" role="img" aria-labelledby="pi-airtel_money"><title id="pi-airtel_money">Airtel Money</title><g fill-rule="evenodd" fill="none"><path fill="#EDEDED" d="M34.5 24h-31C1.6 24 0 22.4 0 20.5v-17C0 1.6 1.6 0 3.5 0h31C36.4 0 38 1.6 38 3.5v17c0 1.9-1.6 3.5-3.5 3.5z"/><path fill="#fff" d="M3.5 1C2.1 1 1 2.1 1 3.5v17C1 21.9 2.1 23 3.5 23h31c1.4 0 2.5-1.1 2.5-2.5v-17C37 2.1 35.9 1 34.5 1h-31z"/><path fill="#EB2227" d="M22.3 3c.6.1 1.2.2 1.7.3 2.2.4 3.9 2 4.5 4.1.3 1.6.1 3.3-.7 4.7-.9 1.8-2.1 3.3-3.7 4.5-2.1 1.8-4.6 3.2-7.3 4.1-.6.2-1.3.3-1.9.3-1.1.1-2.1-.7-2.2-1.8v-.5c.2-2.1 1.7-3.8 3.8-4.4.5 0 1 0 1.4.2.5.2.8.8.6 1.4-.1.2-.2.3-.3.4-.4.4-.8.8-1.2 1.1s-.7.6-1 1c-.2.2-.3.4-.4.6-.2.4 0 .6.4.6.2 0 .4 0 .6-.1 3.5-1.3 6.3-3.7 8.1-6.9.3-.5.4-1 .4-1.6.1-1.7-1-2.7-2.6-2.2-1.2.4-2.5.9-3.6 1.5-1.2.6-2.4 1.4-3.6 2-.9.5-1.9.8-3 .9-.5.1-1 0-1.4-.1-1-.1-1.8-1.1-1.6-2.3 0-.1 0-.2.1-.3.5-1.4 1.4-2.7 2.6-3.5 2.3-1.8 5-3.1 7.9-3.7.5-.1 1.1-.2 1.6-.3h.8z"/></g></svg>

<svg xmlns="http://www.w3.org/2000/svg" width="38" height="24" viewBox="0 0 38 24" fill="none" aria-labelledby="pi-airtel_money" role="img"><title id="pi-airtel_money">Airtel Money</title><rect width="38" height="24" fill="white"/><path fill-rule="evenodd" clip-rule="evenodd" d="M22.3 3C22.9 3.1 23.5 3.2 24 3.3C26.2 3.7 27.9 5.3 28.5 7.4C28.8 9 28.6 10.7 27.8 12.1C26.9 13.9 25.7 15.4 24.1 16.6C22 18.4 19.5 19.8 16.8 20.7C16.2 20.9 15.5 21 14.9 21C13.8 21.1 12.8 20.3 12.7 19.2V18.7C12.9 16.6 14.4 14.9 16.5 14.3C17 14.3 17.5 14.3 17.9 14.5C18.4 14.7 18.7 15.3 18.5 15.9C18.4 16.1 18.3 16.2 18.2 16.3C17.8 16.7 17.4 17.1 17 17.4C16.6 17.7 16.3 18 16 18.4C15.8 18.6 15.7 18.8 15.6 19C15.4 19.4 15.6 19.6 16 19.6C16.2 19.6 16.4 19.6 16.6 19.5C20.1 18.2 22.9 15.8 24.7 12.6C25 12.1 25.1 11.6 25.1 11C25.2 9.3 24.1 8.3 22.5 8.8C21.3 9.2 20 9.7 18.9 10.3C17.7 10.9 16.5 11.7 15.3 12.3C14.4 12.8 13.4 13.1 12.3 13.2C11.8 13.3 11.3 13.2 10.9 13.1C9.9 13 9.1 12 9.3 10.8C9.3 10.7 9.3 10.6 9.4 10.5C9.9 9.1 10.8 7.8 12 7C14.3 5.2 17 3.9 19.9 3.3C20.4 3.2 21 3.1 21.5 3H22.3V3Z" fill="#EB2227"/></svg>
